X: 2756
T: Banks Of The Lossie, The
R: slip jig
M: 9/8
K: Dmajor
|:{gf}g|a2 {GdG}a {fg}f3 {ag}a2 g|{fg}f>ef {Gdc}d3 {e}A3|{g}A>Bd {gfg}f3 {ag}a2 f|a>fd {gef}e3 {A}e2 {gf}g|
a2 {GdG}a {fg}f3 {ag}a2 g|{fg}f>ef {Gdc}d3 {e}A3|{g}A>Bd {gfg}f3 {ag}a2 A|{g}A>ce {Gdc}d3 {gdc} d2:|
|:f|{g}A>Bd {gdc} d3 {g}A2 d|{gBd}B>A{d}B {Gdc}d3 {e}A2 f|{gf}g>fe {gfg}f3 {ag}a2 f|a>fd {gef}e3 {A}e2 f|
{gf}g>fe {gfg}f3 {ag}a2 f|a>fd {gBd}B3 {g}G2 {d}B|{g}A>Bd {gfg}f3 {ag}a2 A|{g}A>ce {Gdc}d3 {gdc} d2:|

